X: 18
T: Jinse changzong huangbiao ma
L: 1/8
M: 3/4
K: A
c2<B2B (3c/ e/ c/ [I:setbarnb 1]| 
B c2<f2g/ b/ | 
c6 | 
c B/ c/e4 | 
f ec4 | 
f2<F2-F B/ A/ | 
E F2<B2c// B// c// e// | 
A4F z | 
E FA4 | 
B AF4 |]

@@@ Tune index: 8686
